hosted/assets/icon/widgets/dark-mode/image.svg

<svg width="50" height="50" viewBox="0 0 50 50" fill="none" xmlns="http://www.w3.org/2000/svg">
<path d="M11 20L1 29.5V44H48.5V34H38L30 29.5H23.5L20 24.5L15 25.5L11 20Z" fill="#3B9281"/>
<path d="M0 5V45H50V5H0ZM2 7H48V33H37.3203L30.3203 28H24.4141L20.3281 23.9141L15.4609 24.8906L11.1562 18.4297L2 27.5859V7ZM37.5 13C35.0273 13 33 15.0273 33 17.5C33 19.9727 35.0273 22 37.5 22C39.9727 22 42 19.9727 42 17.5C42 15.0273 39.9727 13 37.5 13ZM37.5 15C38.8906 15 40 16.1094 40 17.5C40 18.8906 38.8906 20 37.5 20C36.1094 20 35 18.8906 35 17.5C35 16.1094 36.1094 15 37.5 15ZM10.8438 21.5703L14.5391 27.1094L19.6719 26.0859L23.5859 30H29.6797L36.6797 35H48V43H2V30.4141L10.8438 21.5703Z" fill="white"/>
</svg>

<svg width="50" height="50" fill="none" xmlns="http://www.w3.org/2000/svg"><path d="M11 20L1 29.5V44h47.5V34H38l-8-4.5h-6.5l-3.5-5-5 1-4-5.5z" fill="#3B9281"/><path d="M0 5v40h50V5H0zm2 2h46v26H37.32l-7-5h-5.906l-4.086-4.086-4.867.977-4.305-6.461L2 27.586V7zm35.5 6a4.516 4.516 0 00-4.5 4.5c0 2.473 2.027 4.5 4.5 4.5s4.5-2.027 4.5-4.5-2.027-4.5-4.5-4.5zm0 2c1.39 0 2.5 1.11 2.5 2.5S38.89 20 37.5 20 35 18.89 35 17.5s1.11-2.5 2.5-2.5zm-26.656 6.57l3.695 5.54 5.133-1.024L23.586 30h6.094l7 5H48v8H2V30.414l8.844-8.844z" fill="#fff"/></svg>
